svgs/duotone/lasso.svg

<svg xmlns="http://www.w3.org/2000/svg" viewBox="0 0 576 512"><!--! Font Awesome Pro 6.0.0-alpha3 by @fontawesome - https://fontawesome.com License - https://fontawesome.com/license (Commercial License) --><defs><style>.fa-secondary{opacity:.4}</style></defs><path class="fa-primary" d="M256 320.6c0 35.21-35.82 63.76-80 63.76S96 355.8 96 320.6s35.82-63.76 80-63.76S256 285.4 256 320.6z"/><path class="fa-secondary" d="M178.1 384.2c1.611 5.707 2.436 11.6 2.537 17.54c.3301 25.34-19.91 46.16-45.25 46.49C135.3 448.2 48 448.1 48 448.1c-8.812 0-15.97 7.156-16 15.97v31.9C32.03 504.8 39.21 512 48.03 512H134.1c59.38 0 108.8-47.23 109.8-106.4c.4043-15.36-1.842-30.67-6.594-45.28C223.9 374.5 202.5 383.7 178.1 384.2zM288 0c-161.5 0-288 79.62-288 181.3C0 231.1 30.22 277.1 85 311c3.539 2.172 7.351 4.271 11.31 6.412c1.391-22.07 16.79-40.96 39.31-51.55c-5.908-3-11.91-6.02-16.88-9.09C98.33 244.2 64 217.5 64 181.3c0-62.61 104.7-117.5 224-117.5s224 54.91 224 117.5c0 62.61-104.7 117.6-224 117.6c-12.82 0-25.29-.8008-37.75-2C254.1 304.2 255.9 312.3 256 320.6c0 14.93-6.699 28.47-17.48 39.34C254.1 361.7 271.5 362.6 288 362.6c161.5 0 288-79.69 288-181.3C576 79.64 449.5 0 288 0z"/></svg>

<svg xmlns="http://www.w3.org/2000/svg" viewBox="0 0 576 512"><!-- Font Awesome Pro 6.0.0-alpha2 by @fontawesome - https://fontawesome.com License - https://fontawesome.com/license (Commercial License) --><defs><style>.fa-secondary{opacity:.4}</style></defs><path d="M178.131 384.211C179.742 389.918 180.609 395.809 180.711 401.742C181.041 427.086 160.762 447.906 135.414 448.234C135.256 448.238 135.098 448.238 134.939 448.242H48C39.188 448.242 32.033 455.367 32 464.18V496.059C32.033 504.875 39.188 512 48 512H134.939C194.32 512 243.74 464.77 244.699 405.617C245.104 390.262 242.883 374.949 238.131 360.34C223.891 374.461 202.48 383.688 178.131 384.211ZM288 0C126.5 0 0 79.641 0 181.297C0 231.078 30.221 277.141 85 311C88.539 313.172 92.41 315.309 96.369 317.449C97.76 295.379 113.1 276.449 135.619 265.859C129.711 262.859 123.699 259.859 118.721 256.789C98.311 244.172 64 217.57 64 181.297C64 118.687 168.689 63.758 288 63.758S512 118.687 512 181.297C512 243.91 407.311 298.82 288 298.82C275.18 298.82 262.58 298.02 250.119 296.82C253.936 304.176 255.949 312.332 256 320.617C256 335.547 249.301 349.09 238.52 359.961C254.955 361.703 271.473 362.578 288 362.578C449.5 362.578 576 282.938 576 181.297C576 79.66 449.5 0 288 0Z" class="fa-secondary"/><path d="M256 320.62C256 355.83 220.18 384.38 176 384.38S96 355.83 96 320.62S131.82 256.86 176 256.86S256 285.41 256 320.62Z" class="fa-primary"/></svg>
